X: 299
T: Bestenigâr Seyir
C: Rauf Yektâ
O: Turkey
F: http://compmusic.upf.edu/node/140
N: bestenigar--seyir--semai--1--rauf_yekta
N: makam= bestenigar
N: form= seyir
N: usul= semai = 3/4
M: 3/4
L: 1/16
K: C _2/4B _3/4d  
Q: 1/4=120
%%MIDI tuningsystem comma53
^F8 c4  | c8 d4  | d4 c4 B4  | c8 z4  | c4 d4 e4  | \
w:   |   |   |   |   | 
f4 g4 f4  | e4 d4 c2B2  | c8 z4  | 
w:   |   |   | 
c8 g4  | g8 f2g2  | a8 g4  | f4 e4 d4  | c4 d4 d4  | \
w:   |   |   |   |   | 
d2e2 d4 c4  | c2B2 A4 B4  | 
w:   |   | 
c8 z4  | c4 d8  | d2e2 d4 c4  | c2d2 c4 B4  | \
w:   |   |   |   | 
B4 A4 G4  | z4 A4 B4  | c2d2 c4 B4  | 
w:   |   |   | 
A8 G4  | ^F8 z4  | |


